X: 30053
M: 2/4
L: 1/8
K: Am
e |\
cABA | G2EE | A2GA | B2ze |\
cABA | G2Bc | c2zB | cAcd |\
e3e | cAcd | e3B | cABA |\


